client/public/img/game/shared/decals/frag_explosion_decal.svg

<?xml version="1.0" encoding="UTF-8" standalone="no"?>
<svg
   width="96"
   height="93"
   viewBox="0 0 96 93"
   fill="none"
   version="1.1"
   id="svg2"
   xmlns="http://www.w3.org/2000/svg"
   xmlns:svg="http://www.w3.org/2000/svg">
  <path
     d="M62.792 27.0957L83.1362 17.3418L66.7603 32.8457L66.9595 33.2793L67.0581 33.502L82.583 31.7598L68.4429 37.6426L68.4854 37.8281L82.1489 40.4375L69.0405 42.4453L69.0454 42.9023L69.042 43.3066L95.1982 50.4824L68.54 50.2422L76.4404 54.9199L66.5317 53.5371L66.3472 53.9082L66.2314 54.1348L80.5088 70.8809L59.167 62.3281L58.8452 62.5605L64.084 78.6035L53.4985 66.3672L53.9727 92.7539L45.7515 68.2734L40.1826 79.5879L38.4307 66.375C38.0273 66.2578 37.6274 66.127 37.2314 65.9883L23.959 82.916L27.2002 63.3574L19.2637 70.1113L25.6372 58.7656L7.70459 65.3945L22.3179 51.2012C22.2319 50.8867 22.1528 50.5703 22.0801 50.252L3.15283 50.084L21.2432 41.4062L0.691406 33.9434L22.708 34.2305L0.555664 17.6973L25.7441 26.8438L19.4033 16.7363L29.8291 25.6973L30.2515 25.3633L26.7432 5.25781L39.8228 20.5703L38.041 10.9336L42.3428 20.0723L42.6294 20.0371L43.1362 19.9824L44.1812 0.0117188L50.8301 20.373L51.0991 20.418L58.3809 9.33008L56.2695 22.1914L68.814 10.3184L62.5659 26.8848L62.792 27.0957Z"
     fill="url(#paint0_radial_1608_402)"
     id="path1" />
  <defs
     id="defs2">
    <radialGradient
       id="paint0_radial_1608_402"
       cx="0"
       cy="0"
       r="1"
       gradientUnits="userSpaceOnUse"
       gradientTransform="translate(46.0593 42.2964) rotate(55.4775) scale(46.0564 44.6914)">
      <stop
         stop-opacity="0.7"
         id="stop1" />
      <stop
         offset="1"
         stop-opacity="0.3"
         id="stop2" />
    </radialGradient>
  </defs>
</svg>

<svg xmlns="http://www.w3.org/2000/svg" width="96" height="93" fill="none"><path fill="url(#a)" d="m62.792 27.096 20.344-9.754L66.76 32.846l.2.433.098.223 15.525-1.742-14.14 5.883.042.185 13.664 2.61-13.109 2.007.005.457-.003.405 26.156 7.175-26.658-.24 7.9 4.678-9.908-1.383-.185.371-.116.227L80.51 70.88l-21.342-8.553-.322.232 5.239 16.043-10.586-12.236.475 26.387-8.221-24.48-5.57 11.314-1.751-13.213a23 23 0 0 1-1.2-.387L23.96 82.916 27.2 63.357l-7.936 6.754 6.373-11.345-17.932 6.628 14.613-14.193a23 23 0 0 1-.238-.949l-18.927-.168 18.09-8.678L.691 33.943l22.017.288L.556 17.697l25.188 9.147-6.34-10.108 10.425 8.961.422-.334-3.508-20.105 13.08 15.312-1.782-9.636 4.302 9.138.286-.035.507-.055L44.181.012l6.65 20.361.268.045L58.381 9.33 56.27 22.191l12.544-11.873-6.248 16.567z"/><defs><radialGradient id="a" cx="0" cy="0" r="1" gradientTransform="rotate(55.478 -17.186 64.941)scale(46.0564 44.6914)" gradientUnits="userSpaceOnUse"><stop stop-opacity=".7"/><stop offset="1" stop-opacity=".3"/></radialGradient></defs></svg>
